X: 105103
Q:"Strathspey."
M: C
L: 1/16
K: Em
uF4 |:\
EE3 E4 (E3F)B3uF | EE3 E4 (F3D)A3F |\
EE3 E4 (E3F)B3A | Bd3 AuB3 vF3vDuA3uF ::\
d^cBA d3A FD3Dd3 :|\
ee3 e4 (e3f)b3f | ee3 e4 (f3d)a3f |\
ee3 e4 (e3f)b2f2 | g2e2b2e2 d2(fg) a2f2 |\
g2e2b2e2 g2e2b2e2 | g2e2b2e2 d2(fg) a2f2 |
g2e2b2B2 vd3veuf3ue | d^cBA d3uA FD3 D3d |:\
[2 d^cBA BcdA FD3A3F |]


